X:59
T:Leis oliveto
O:France
C:Trad.
A:Provence
S:Carnet du tambourinaire Ginas (1924)
R:Danse trad.
Z:Transcrit et/ou corrig? par Michel BELLON - 2005-03-12
Z:Pour toute observation mailto:galouvielle@free.fr
M:2/4
L:1/8
K:Bb
Bf | f(g/f/) ef | !breath!d2ed | cB Bc | d!breath!B Bf | f(g/f/) ef | d2ed | cB cA | B2 ||
Bc | d(c/d/) ed | !breath!c2 ed | cB Bc | d!breath!B Bc | d(c/d/) ed | c2 ed | cB cA | B2 |]
[K:Eb]
zB | e/d/e/f/ eB | e/d/e/f/ eg | fe dc | B2BB | e/d/e/f/ eB | e/d/e/f/ eg | fe dc | B2z2 |
G>G GG | A2AA | GG BG | F2F2 | G>G GG | A2Ac | BA GF | E2z2 |]
<end>
<start>
